!! George Gerswhin, "I Got Plenty O' Nuttin'" from
!! "Bumper Book of George Gerswhin,"
!! London: Chappell Music Ltd., 1987; pp.126-131
!! NOTE: In measures 40 and 89, there is a spoken rhythm without pitch.
!!       The "pitch" is indicated using humdrum event tokens ("X").
**kern
*M2/2
*MM[Moderato]
=1
2r
4r
4d
=2
4g
4g
4a
8g
8a
=3
8b
[4.dd
4dd]
8r
8d
=4
4b
8b
[8a
8a]
8b
4a
=5
2g
2f#
=6
4e
4e
4.c#
8r
=7
4e
4e
4.c#
8c#
=8
4e
4e
4c#
4e
=9
[1e#
!! page 127
=10
2e#]
2f#
=11
4g
4g
4a
8g
8a
=12
8b
[4.dd
4dd]
4r
=13
4b
8b
[8a
8a]
8b
4a
=14
(2g
2f#)
=15
4e
4e
8c#
4c#
8c#
=16
8e
4e
8e
8c#
8c#
8c#
8c#
=17
4e
4e
4c#
4e
=18
[1e#
=19
2e#]
2f#
=20
[1g
=21
2g]
2r
=22
4f#
8d
8B
4d
8B
8d
=23
2f#
8e
8f#
8e
8B
=24
[1d
=25
4d]
4r
8e
8f#
8e
8B
=26
4d
8B
8d
[2f#
!! page 128
=27
2f#]
8e
8f#
8e
8B
=28
4d
8B
8d
4e
8cn
8e
=29
4f#
8d
8f#
4g
8e
8g
=30
4a
8f#
8a
[2cc
=31
2cc]
4r
4d
=32
4g
4g
4a
8g
8a
=33
8b
[4.dd
4dd]
8r
8d
=34
4b
8a
[8a
8a]
8b
4a
=35
2g
2f#
=36
4e
4e
4.c#
8r
=37
4e
4e
4.c#
8c#
=38
8e
4e
8e
4c#
4e
=39
1e#
=40
6X
6X
6X
4X
4X
=41
2r
4f#
4f#
=42
[1g
=43
4g]
4r
4fn
4f
=44
[1g
!! page 129
=45
4g]
4r
4e
4e
=46
[1g
=47
2g]
2r
=48
1r
=49
1r
=50
1r
=51
4g
4g
4a
8g
8a
=52
8b
[4.dd
4dd]
8r
8d
=53
4b
8b
[8a
8a]
8b
4a
=54
2g
2f#
=55
4e
4e
4.c#
8r
=56
4e
4e
4.c#
8r
=57
4e
4e
4c#
4e
=58
[1e#
=59
2e#]
2f#
=60
4g
4g
4a
8g
8a
=61
8b
[4.dd
4dd]
4r
=62
4b
8b
[8a
8a]
8b
4a
=63
(2g
2f#)
!! page 130
=64
4e
4e
8c#
4c#
8c#
=65
8e
4e
8e
8c#
8c#
8c#
8c#
=66
4e
4e
8c#
4c#
8e
=67
[1e#
=68
2e#]
2f#
=69
[1g
=70
2g]
2r
=71
4f#
8d
8B
8d
8B
4d
=72
2f#
8e
8f#
8e
8B
=73
[1d
=74
4d]
4r
8e
8f#
8e
8B
=75
4d
8B
8d
[2f#
=76
4f#]
4r
8e
8f#
8e
8B
=77
4d
8B
8d
4e
8cn
8e
=78
4f#
8d
8f#
4g
8e
8g
=79
4a
8f#
8a
[2cc
=80
4cc]
4r
2dd
!! page 131
=81
4g
4g
4a
8g
8a
=82
8b
[4.dd
4dd]
8r
8d
=83
4b
8b
[8a
8a]
8b
4a
=84
2g
2f#
=85
4e
4e
4.c#
8r
=86
4e
4e
4c#
8r
8c#
=87
8e
4e
8e
4c#
4e
=88
1e#
=89
6X
6X
6X
4X
4X
=90
2r
4f#
4f#
=91
[1g
=92
4g]
4r
4fn
4f
=93
[1g
=94
4g]
4r
4e
4e
=95
[1g
=96
1g_
=97
1g_
=98
4g]
4r
2r
=99
1r
====
*-
